src/assets/icons/filter-slash.svg

<svg width="14" height="14" viewBox="0 0 14 14" fill="none" xmlns="http://www.w3.org/2000/svg">
<g id="filter-slash">
<g clip-path="url(#clip0_156_4618)">
<path id="Vector" fill-rule="evenodd" clip-rule="evenodd" d="M0.272582 0.338461C0.377789 0.130844 0.590777 0 0.823529 0H3.81295C3.98229 0 4.13568 0.0681186 4.24726 0.178488L13.199 9.03143C13.4416 9.27129 13.4437 9.66236 13.2039 9.9049C12.964 10.1474 12.5729 10.1496 12.3304 9.90975L9.31504 6.92768L9.26471 6.99632V13.3824C9.26471 13.7235 8.98818 14 8.64706 14H5.35294C5.01182 14 4.73529 13.7235 4.73529 13.3824V6.99632L0.325456 0.982901C0.187815 0.795209 0.167374 0.546078 0.272582 0.338461ZM8.42713 6.04957L3.55911 1.23529H2.0424L5.85101 6.42886C5.9287 6.5348 5.97059 6.66275 5.97059 6.79412V12.7647H8.02941V6.79412C8.02941 6.66275 8.0713 6.5348 8.14899 6.42886L8.42713 6.04957ZM6.79412 0.617647C6.79412 0.27653 7.07065 0 7.41176 0H13.1765C13.4092 0 13.6222 0.130844 13.7274 0.338461C13.8326 0.546078 13.8122 0.795209 13.6745 0.982901L11.4098 4.07114C11.2081 4.34621 10.8216 4.40568 10.5465 4.20396C10.2714 4.00223 10.212 3.61571 10.4137 3.34063L11.9576 1.23529H7.41176C7.07065 1.23529 6.79412 0.958764 6.79412 0.617647Z" fill="black"/>
</g>
</g>
<defs>
<clipPath id="clip0_156_4618">
<rect width="14" height="14" fill="white"/>
</clipPath>
</defs>
</svg>

<svg xmlns="http://www.w3.org/2000/svg" fill="none" viewBox="0 0 14 14"><g clip-path="url(#a)"><path fill="#000" fill-rule="evenodd" d="M.273.338A.62.62 0 0 1 .823 0h2.99c.17 0 .323.068.434.178L13.2 9.031a.618.618 0 1 1-.869.879L9.315 6.928l-.05.068v6.386a.62.62 0 0 1-.618.618H5.353a.62.62 0 0 1-.618-.618V6.996L.325.983A.62.62 0 0 1 .273.338M8.427 6.05 3.56 1.235H2.042L5.851 6.43c.078.106.12.234.12.365v5.97h2.058v-5.97c0-.131.042-.26.12-.365zM6.794.618c0-.341.277-.618.618-.618h5.765a.618.618 0 0 1 .498.983L11.41 4.07a.618.618 0 1 1-.996-.73l1.544-2.106H7.412a.62.62 0 0 1-.618-.617" clip-rule="evenodd"/></g><defs><clipPath id="a"><path fill="#fff" d="M0 0h14v14H0z"/></clipPath></defs></svg>
